gtk-icons/Papirus-GTK/22x22/actions/labplot-xy-equation-curve.svg

<?xml version="1.0" encoding="UTF-8" standalone="no"?>
<!-- Created with Inkscape (http://www.inkscape.org/) -->

<svg
   xmlns:dc="http://purl.org/dc/elements/1.1/"
   xmlns:cc="http://creativecommons.org/ns#"
   xmlns:rdf="http://www.w3.org/1999/02/22-rdf-syntax-ns#"
   xmlns:svg="http://www.w3.org/2000/svg"
   xmlns="http://www.w3.org/2000/svg"
   xmlns:sodipodi="http://sodipodi.sourceforge.net/DTD/sodipodi-0.dtd"
   xmlns:inkscape="http://www.inkscape.org/namespaces/inkscape"
   width="22"
   height="22"
   id="svg4355"
   version="1.1"
   inkscape:version="0.91 r13725"
   sodipodi:docname="labplot-xy-equation-curve.svg">
  <defs
     id="defs4357">
    <style
       type="text/css"
       id="current-color-scheme">
      .ColorScheme-Text {
        color:#4d4d4d;
      }
      .ColorScheme-Background {
        color:#eff0f1;
      }
      .ColorScheme-Highlight {
        color:#3daee9;
      }
      .ColorScheme-ViewText {
        color:#31363b;
      }
      .ColorScheme-ViewBackground {
        color:#fcfcfc;
      }
      .ColorScheme-ViewHover {
        color:#93cee9;
      }
      .ColorScheme-ViewFocus{
        color:#3daee9;
      }
      .ColorScheme-ButtonText {
        color:#31363b;
      }
      .ColorScheme-ButtonBackground {
        color:#eff0f1;
      }
      .ColorScheme-ButtonHover {
        color:#93cee9;
      }
      .ColorScheme-ButtonFocus{
        color:#3daee9;
      }
      </style>
  </defs>
  <sodipodi:namedview
     id="base"
     pagecolor="#ffffff"
     bordercolor="#666666"
     borderopacity="1.0"
     inkscape:pageopacity="0.0"
     inkscape:pageshadow="2"
     inkscape:zoom="17.16"
     inkscape:cx="7.92507"
     inkscape:cy="9.374312"
     inkscape:document-units="px"
     inkscape:current-layer="g3984"
     showgrid="false"
     width="0px"
     height="0px"
     fit-margin-top="0"
     fit-margin-left="0"
     fit-margin-right="0"
     fit-margin-bottom="0"
     inkscape:window-width="1600"
     inkscape:window-height="847"
     inkscape:window-x="0"
     inkscape:window-y="30"
     inkscape:window-maximized="1"
     inkscape:showpageshadow="false"
     inkscape:snap-bbox="true"
     inkscape:snap-global="false"
     showguides="false">
    <inkscape:grid
       type="xygrid"
       id="grid4114" />
    <sodipodi:guide
       position="2.0000011,19.999996"
       orientation="18,0"
       id="guide4120" />
    <sodipodi:guide
       position="2.0000011,1.9999962"
       orientation="0,18"
       id="guide4122" />
    <sodipodi:guide
       position="20.000001,1.9999962"
       orientation="-18,0"
       id="guide4124" />
    <sodipodi:guide
       position="15.734266,3.030303"
       orientation="0,-18"
       id="guide4126" />
    <sodipodi:guide
       position="3.0000011,18.999996"
       orientation="16,0"
       id="guide4128" />
    <sodipodi:guide
       position="3.0000011,2.9999962"
       orientation="0,16"
       id="guide4130" />
    <sodipodi:guide
       position="19.000001,2.9999962"
       orientation="-16,0"
       id="guide4132" />
    <sodipodi:guide
       position="19.000001,18.999996"
       orientation="0,-16"
       id="guide4134" />
  </sodipodi:namedview>
  <metadata
     id="metadata4360">
    <rdf:RDF>
      <cc:Work
         rdf:about="">
        <dc:format>image/svg+xml</dc:format>
        <dc:type
           rdf:resource="http://purl.org/dc/dcmitype/StillImage" />
        <dc:title></dc:title>
      </cc:Work>
    </rdf:RDF>
  </metadata>
  <g
     inkscape:label="Capa 1"
     inkscape:groupmode="layer"
     id="layer1"
     transform="translate(-544.57141,-742.93359)">
    <g
       id="g3845"
       transform="translate(0,-0.53516)">
      <g
         id="g3984"
         transform="translate(0,3)">
        <path
           style="color:#4d4d4d;font-style:normal;font-variant:normal;font-weight:normal;font-stretch:normal;font-size:medium;line-height:normal;font-family:sans-serif;text-indent:0;text-align:start;text-decoration:none;text-decoration-line:none;text-decoration-style:solid;text-decoration-color:#000000;letter-spacing:normal;word-spacing:normal;text-transform:none;direction:ltr;block-progression:tb;writing-mode:lr-tb;baseline-shift:baseline;text-anchor:start;white-space:normal;clip-rule:nonzero;display:inline;overflow:visible;visibility:visible;opacity:0.5;isolation:auto;mix-blend-mode:normal;color-interpolation:sRGB;color-interpolation-filters:linearRGB;solid-color:#000000;solid-opacity:1;fill:#000000;fill-opacity:1;fill-rule:nonzero;stroke:none;stroke-width:1;stroke-linecap:butt;stroke-linejoin:miter;stroke-miterlimit:4;stroke-dasharray:none;stroke-dashoffset:0;stroke-opacity:1;color-rendering:auto;image-rendering:auto;shape-rendering:auto;text-rendering:auto;enable-background:accumulate"
           d="M 11,4 C 10.06944,4 9.2703775,4.4954212 8.5546875,5.1445312 7.8389975,5.7936412 7.1768106,6.6209444 6.4941406,7.4277344 5.6495987,8.5946884 3.495492,10.16524 3,10.429688 L 3,10.5 l 0,0 0,1 c 1.2720094,0 1.3661025,0.791858 2.3984375,1.851562 0.039714,0.117421 0.076304,0.238166 0.1269531,0.341797 0.0753,0.15404 0.1389482,0.329642 0.4238282,0.451172 l 0.1191406,0.05078 0.080078,-0.0078 c 0.1139798,0.131093 0.2303873,0.25079 0.34375,0.384766 0.68268,0.80679 1.34682,1.634093 2.0625,2.283203 C 9.2703775,17.504579 10.06944,18 11,18 c 0.93055,0 1.729623,-0.495421 2.445312,-1.144531 0.71569,-0.64911 1.377877,-1.476413 2.060547,-2.283203 C 16.871209,12.958666 17.27083,11.5 19,11.5 l 0,-1 C 18.215842,10.5 18.502323,10.189305 17.826172,9.7109375 17.727247,9.6234152 17.625729,9.5375351 17.53125,9.4453125 17.24315,9.1641125 16.977827,8.8826031 16.742188,8.6582031 16.624378,8.5460131 16.516754,8.4479812 16.396484,8.3632812 16.363749,8.3402162 16.320547,8.3192101 16.28125,8.296875 16.021206,8.014114 15.76156,7.7299266 15.505859,7.4277344 14.823179,6.6209444 14.161002,5.7936412 13.445312,5.1445312 12.729623,4.4954213 11.93056,4 11,4 Z m 0,1 c 0.56944,0 1.145377,0.3170788 1.773438,0.8867188 0.62806,0.56964 1.278383,1.3673368 1.970703,2.1855468 0.121328,0.1433874 0.255912,0.2852305 0.380859,0.4296875 -0.05915,0.049688 -0.11612,0.1018128 -0.166016,0.1582031 -0.23429,0.26477 -0.414348,0.5933532 -0.580078,0.9707032 -0.33145,0.7547096 -0.597147,1.7100526 -0.835937,2.6640626 -0.23878,0.95401 -0.448062,1.904329 -0.638672,2.599609 -0.0418,0.15233 -0.0757,0.227643 -0.115235,0.351563 -0.0935,-0.24922 -0.187378,-0.496388 -0.292968,-0.867188 -0.28929,-1.01583 -0.603436,-2.397777 -0.910156,-3.779297 -0.30671,-1.3815196 -0.606351,-2.7635096 -0.875,-3.8124996 C 10.576617,6.2626094 10.452255,5.8245375 10.328125,5.4921875 10.287477,5.3834136 10.240622,5.2977019 10.195312,5.2070312 10.467705,5.076213 10.735019,5 11,5 Z M 9.4355469,5.9921875 c 0.0914,0.26478 0.1928506,0.5986388 0.3066406,1.0429687 0.2604495,1.01695 0.5597275,2.3963701 0.8671875,3.7812498 0.30746,1.38487 0.623581,2.774768 0.925781,3.835938 0.1511,0.53059 0.295679,0.975782 0.449219,1.320312 0.0768,0.17226 0.152303,0.319378 0.257813,0.455078 0.01685,0.02168 0.04816,0.0433 0.06836,0.06641 C 11.857762,16.822561 11.426353,17 11,17 10.43055,17 9.8546225,16.682921 9.2265625,16.113281 8.5985025,15.543641 7.9481894,14.745944 7.2558594,13.927734 7.1930018,13.853448 7.122383,13.779821 7.0585938,13.705078 c 0.042255,-0.04614 0.085435,-0.09137 0.1230468,-0.140625 0.23728,-0.31073 0.4134556,-0.68918 0.5722656,-1.119141 0.3176301,-0.8599 0.5495382,-1.930001 0.7675782,-2.9824214 0.21804,-1.05242 0.4214644,-2.0879256 0.6464844,-2.8222656 0.0894,-0.29176 0.1820681,-0.4820275 0.2675781,-0.6484375 z M 7.9960938,7.203125 C 7.8398886,7.8499519 7.6919449,8.5407091 7.5429688,9.2597656 7.3265787,10.304196 7.0942462,11.345476 6.8164062,12.097656 6.6789367,12.46981 6.5282925,12.768743 6.390625,12.951172 6.3491363,12.905994 6.3115056,12.859227 6.2695312,12.814453 6.1766525,12.50052 6.0795525,12.102631 5.9726562,11.689453 5.8583163,11.247503 5.7384881,10.804387 5.5800781,10.435547 5.5213314,10.298746 5.4533289,10.174336 5.3710938,10.054688 6.0579346,9.458915 6.6774524,8.7558356 7.2558594,8.0722656 7.5096321,7.7723517 7.7526388,7.4873059 7.9960938,7.203125 Z m 7.7968752,2.0546875 c 0.438839,0.4626649 0.907623,0.8913715 1.412109,1.2539065 0.213112,0.196698 0.436396,0.385458 0.679688,0.552734 -1.224459,0.657112 -2.233418,1.788829 -3.142578,2.863281 -0.275561,0.325668 -0.53961,0.637278 -0.802735,0.94336 0.181395,-0.695482 0.365885,-1.499673 0.574219,-2.332032 0.23414,-0.93546 0.49757,-1.859919 0.78125,-2.505859 0.14184,-0.3229599 0.291609,-0.5747574 0.412109,-0.7109374 0.05803,-0.065589 0.06429,-0.053631 0.08594,-0.064453 z M 4.5839844,10.689453 c 0.0263,0.0445 0.046125,0.06609 0.078125,0.140625 0.073683,0.171563 0.1481545,0.457974 0.2226562,0.71875 C 4.5982925,11.336318 4.2957183,11.157056 3.9824219,11 c 0.1443244,-0.07241 0.28934,-0.143322 0.4277343,-0.228516 0.058693,-0.02984 0.1149637,-0.04947 0.1738282,-0.08203 z"
           transform="translate(544.57141,740.46875)"
           id="path4725"
           inkscape:connector-curvature="0"
           sodipodi:nodetypes="sscccccccccccssssccccsccsssssscccscccssccsccsscscssscscssccssccsccsccccscsccccccccc" />
        <g
           id="g3012">
          <g
             id="g3008" />
        </g>
      </g>
    </g>
  </g>
</svg>

<?xml version="1.0" encoding="UTF-8" standalone="no"?>
<!-- Created with Inkscape (http://www.inkscape.org/) -->
<svg id="svg4355" xmlns:rdf="http://www.w3.org/1999/02/22-rdf-syntax-ns#" xmlns="http://www.w3.org/2000/svg" height="22" width="22" version="1.1" xmlns:cc="http://creativecommons.org/ns#" xmlns:dc="http://purl.org/dc/elements/1.1/">
 <defs id="defs4357">
  <style id="current-color-scheme" type="text/css">.ColorScheme-Text {
        color:#4d4d4d;
      }
      .ColorScheme-Background {
        color:#eff0f1;
      }
      .ColorScheme-Highlight {
        color:#3daee9;
      }
      .ColorScheme-ViewText {
        color:#31363b;
      }
      .ColorScheme-ViewBackground {
        color:#fcfcfc;
      }
      .ColorScheme-ViewHover {
        color:#93cee9;
      }
      .ColorScheme-ViewFocus{
        color:#3daee9;
      }
      .ColorScheme-ButtonText {
        color:#31363b;
      }
      .ColorScheme-ButtonBackground {
        color:#eff0f1;
      }
      .ColorScheme-ButtonHover {
        color:#93cee9;
      }
      .ColorScheme-ButtonFocus{
        color:#3daee9;
      }</style>
 </defs>
 <metadata id="metadata4360">
  <rdf:RDF>
   <cc:Work rdf:about="">
    <dc:format>image/svg+xml</dc:format>
    <dc:type rdf:resource="http://purl.org/dc/dcmitype/StillImage"/>
    <dc:title/>
   </cc:Work>
  </rdf:RDF>
 </metadata>
 <g id="layer1" transform="translate(-544.57 -742.93)">
  <g id="g3845" transform="translate(0 -.53516)">
   <g id="g3984" transform="translate(0,3)">
    <path id="path4725" opacity=".5" style="color-rendering:auto;text-decoration-color:#000000;color:#4d4d4d;isolation:auto;mix-blend-mode:normal;shape-rendering:auto;solid-color:#000000;block-progression:tb;text-decoration-line:none;text-decoration-style:solid;image-rendering:auto;white-space:normal;text-indent:0;text-transform:none" d="m11 4c-0.931 0-1.7296 0.4954-2.4453 1.1445s-1.3779 1.4764-2.0606 2.2832c-0.8445 1.167-2.9986 2.7373-3.4941 3.0023v0.07 1c1.272 0 1.3661 0.79186 2.3984 1.8516 0.039714 0.11742 0.076304 0.23817 0.12695 0.3418 0.0753 0.15404 0.13895 0.32964 0.42383 0.45117l0.11914 0.05078 0.080078-0.0078c0.11398 0.13109 0.23039 0.25079 0.34375 0.38477 0.68268 0.80679 1.3468 1.6341 2.0625 2.2832 0.7158 0.649 1.5144 1.144 2.4454 1.144 0.93055 0 1.7296-0.49542 2.4453-1.1445 0.71569-0.64911 1.3779-1.4764 2.0605-2.2832 1.365-1.613 1.765-3.072 3.494-3.072v-1c-0.784 0-0.498-0.311-1.174-0.7891-0.099-0.0875-0.2-0.1734-0.295-0.2656-0.288-0.2812-0.553-0.5627-0.789-0.7871-0.118-0.1122-0.225-0.2102-0.346-0.2949-0.032-0.0231-0.075-0.0441-0.115-0.0664-0.26-0.2828-0.519-0.567-0.775-0.8692-0.683-0.8068-1.345-1.6341-2.061-2.2832-0.715-0.6491-1.514-1.1445-2.445-1.1445zm0 1c0.56944 0 1.1454 0.31708 1.7734 0.88672 0.62806 0.56964 1.2784 1.3673 1.9707 2.1855 0.12133 0.14339 0.25591 0.28523 0.38086 0.42969-0.05915 0.049688-0.11612 0.10181-0.16602 0.1582-0.23429 0.26477-0.41435 0.59335-0.58008 0.9707-0.33145 0.75471-0.59715 1.7101-0.83594 2.6641-0.23878 0.95401-0.44806 1.9043-0.63867 2.5996-0.0418 0.15233-0.0757 0.22764-0.11524 0.35156-0.0935-0.24922-0.18738-0.49639-0.29297-0.86719-0.28929-1.0158-0.60344-2.3978-0.91016-3.7793-0.30671-1.3815-0.60635-2.7635-0.875-3.8125-0.134-0.5244-0.259-0.9625-0.383-1.2948-0.041-0.1088-0.087-0.1945-0.133-0.2852 0.273-0.1308 0.54-0.207 0.805-0.207zm-1.5645 0.9922c0.0914 0.26478 0.19285 0.59864 0.30664 1.043 0.26045 1.017 0.55973 2.3964 0.86719 3.7812 0.30746 1.3849 0.62358 2.7748 0.92578 3.8359 0.1511 0.53059 0.29568 0.97578 0.44922 1.3203 0.0768 0.17226 0.1523 0.31938 0.25781 0.45508 0.01685 0.02168 0.04816 0.0433 0.06836 0.06641-0.452 0.33-0.884 0.507-1.31 0.507-0.569 0-1.1454-0.317-1.7734-0.887-0.6281-0.569-1.2784-1.367-1.9707-2.185-0.0629-0.075-0.1335-0.148-0.1973-0.223 0.042255-0.04614 0.085435-0.09137 0.12305-0.14062 0.23728-0.31073 0.41346-0.68918 0.57227-1.1191 0.31763-0.8599 0.54954-1.93 0.76758-2.9824s0.42146-2.0879 0.64648-2.8223c0.0894-0.29176 0.18207-0.48203 0.26758-0.64844zm-1.4394 1.2109c-0.1562 0.6469-0.3042 1.3376-0.4531 2.0567-0.2164 1.0442-0.4488 2.0852-0.7266 2.8382-0.1375 0.372-0.2881 0.671-0.4258 0.853-0.0415-0.045-0.0791-0.092-0.1211-0.137-0.0928-0.313-0.1899-0.711-0.2968-1.125-0.1144-0.441-0.2342-0.885-0.3926-1.253-0.0588-0.137-0.1268-0.262-0.209-0.381 0.6868-0.5961 1.3064-1.2992 1.8848-1.9827 0.2537-0.2999 0.4967-0.585 0.7402-0.8692zm7.7969 2.0547c0.43884 0.46266 0.90762 0.89137 1.4121 1.2539 0.21311 0.1967 0.4364 0.38546 0.67969 0.55273-1.2245 0.65711-2.2334 1.7888-3.1426 2.8633-0.27556 0.32567-0.53961 0.63728-0.80274 0.94336 0.1814-0.69548 0.36588-1.4997 0.57422-2.332 0.23414-0.93546 0.49757-1.8599 0.78125-2.5059 0.14184-0.32296 0.29161-0.57476 0.41211-0.71094 0.05803-0.065589 0.06429-0.053631 0.08594-0.064453zm-11.209 1.4312c0.0263 0.0445 0.046125 0.06609 0.078125 0.14062 0.073683 0.17156 0.14815 0.45797 0.22266 0.71875-0.2865-0.212-0.5891-0.391-0.9024-0.548 0.14432-0.07241 0.28934-0.14332 0.42773-0.22852 0.058693-0.02984 0.11496-0.04947 0.17383-0.08203z" transform="translate(544.57 740.47)"/>
    <g id="g3012"></g>
   </g>
  </g>
 </g>
</svg>
